X: 5066
T: Bridal, The
R: jig
M: 6/8
K: Gmajor
|:~G3 BGB|def gdB|ecA dBG|FAG FED|
~G3 BGB|def gdB|ecA dBG|1 AGF G2 D:|2 AGF G2 A||
Bee edB|def g2 a|bgb afa|geg fdB|
Bee edB|def g2 a|bgb afa|1 gee e2 A:|2 gee e2 B||

